Numix/24/actions/chronometer-lap.svg

<?xml version="1.0" encoding="UTF-8" standalone="no"?>
<svg
   xmlns:dc="http://purl.org/dc/elements/1.1/"
   xmlns:cc="http://creativecommons.org/ns#"
   xmlns:rdf="http://www.w3.org/1999/02/22-rdf-syntax-ns#"
   xmlns:svg="http://www.w3.org/2000/svg"
   xmlns="http://www.w3.org/2000/svg"
   xmlns:sodipodi="http://sodipodi.sourceforge.net/DTD/sodipodi-0.dtd"
   xmlns:inkscape="http://www.inkscape.org/namespaces/inkscape"
   width="24"
   height="24"
   viewBox="0 0 24 24"
   id="svg2"
   version="1.1"
   inkscape:version="0.91 r13725"
   sodipodi:docname="chronometer-start-lap.svg">
  <metadata
     id="metadata14">
    <rdf:RDF>
      <cc:Work
         rdf:about="">
        <dc:format>image/svg+xml</dc:format>
        <dc:type
           rdf:resource="http://purl.org/dc/dcmitype/StillImage" />
        <dc:title></dc:title>
      </cc:Work>
    </rdf:RDF>
  </metadata>
  <defs
     id="defs12" />
  <sodipodi:namedview
     pagecolor="#ffffff"
     bordercolor="#666666"
     borderopacity="1"
     objecttolerance="10"
     gridtolerance="10"
     guidetolerance="10"
     inkscape:pageopacity="0"
     inkscape:pageshadow="2"
     inkscape:window-width="1366"
     inkscape:window-height="704"
     id="namedview10"
     showgrid="true"
     inkscape:zoom="11.313708"
     inkscape:cx="3.269085"
     inkscape:cy="12"
     inkscape:window-x="0"
     inkscape:window-y="27"
     inkscape:window-maximized="1"
     inkscape:current-layer="svg2"
     inkscape:object-nodes="true">
    <inkscape:grid
       type="xygrid"
       id="grid4142" />
  </sodipodi:namedview>
  <path
     style="fill:#ffffff;fill-rule:evenodd"
     d="m 21,13.001303 a 9,9.000039 0 0 1 -17.9999998,0 9,9.000039 0 1 1 17.9999998,0 z"
     id="path4"
     inkscape:connector-curvature="0" />
  <path
     id="path4138"
     d="M 12,3 C 6.488281,3 2,7.488281 2,13 2,18.511719 6.488281,23 12,23 17.511719,23 22,18.511719 22,13 22,7.488281 17.511719,3 12,3 Z m 0,2 c 4.429688,0 8,3.570312 8,8 0,4.429688 -3.570312,8 -8,8 C 7.570312,21 4,17.429688 4,13 4,8.570312 7.570312,5 12,5 Z"
     style="fill:#aaaaaa"
     inkscape:connector-curvature="0" />
  <path
     sodipodi:nodetypes="sccccss"
     inkscape:connector-curvature="0"
     id="path4151"
     d="m 2.8076118,5.2218254 c -0.3917371,0.3917372 -0.3917371,1.0224764 0,1.4142136 C 3.2790164,7.1074435 3.7504209,7.578848 4.2218254,8.0502525 5.4003369,6.871741 6.5788478,5.6932302 7.7573593,4.5147186 7.2859548,4.0433141 6.8145503,3.5719096 6.3431458,3.1005051 c -0.3917372,-0.3917372 -1.0224765,-0.3917372 -1.4142136,0 z"
     style="opacity:1;fill:#aaaaaa;fill-opacity:1;stroke:none;stroke-width:3;stroke-linecap:round;stroke-linejoin:round;stroke-miterlimit:4;stroke-dasharray:none;stroke-opacity:1" />
  <rect
     style="opacity:1;fill:#aaaaaa;fill-opacity:1;stroke:none;stroke-width:3;stroke-linecap:round;stroke-linejoin:round;stroke-miterlimit:4;stroke-dasharray:none;stroke-opacity:1"
     id="rect4157"
     width="4"
     height="3"
     x="10"
     y="1"
     rx="1"
     ry="1" />
  <path
     style="opacity:1;fill:#aaaaaa;fill-opacity:1;stroke:none;stroke-width:3;stroke-linecap:round;stroke-linejoin:round;stroke-miterlimit:4;stroke-dasharray:none;stroke-opacity:1"
     d="m 21.192388,5.2218254 c 0.391737,0.3917372 0.391737,1.0224764 0,1.4142136 -0.471404,0.4714045 -0.942809,0.942809 -1.414213,1.4142135 -1.178512,-1.1785115 -2.357023,-2.3570223 -3.535534,-3.5355339 0.471404,-0.4714045 0.942809,-0.942809 1.414213,-1.4142135 0.391737,-0.3917372 1.022477,-0.3917372 1.414214,0 z"
     id="path4169"
     inkscape:connector-curvature="0"
     sodipodi:nodetypes="sccccss" />
  <path
     inkscape:connector-curvature="0"
     style="opacity:1;fill:#268bd2;fill-opacity:1;stroke:none;stroke-width:3;stroke-linecap:square;stroke-linejoin:bevel;stroke-miterlimit:4;stroke-dasharray:none;stroke-opacity:1"
     d="m 12,6 0,7 7,0 A 7,7 0 0 0 12,6 Z"
     id="rect4139" />
</svg>

<svg xmlns="http://www.w3.org/2000/svg" viewBox="0 0 24 24">
 <path d="m 21 13 a 9 9 0 0 1 -18 0 9 9 0 1 1 18 0 z" style="fill:#fff;fill-rule:evenodd"/>
 <path d="m 12 3 c -5.512 0 -10 4.488 -10 10 0 5.512 4.488 10 10 10 5.512 0 10 -4.488 10 -10 0 -5.512 -4.488 -10 -10 -10 m 0 2 c 4.43 0 8 3.57 8 8 0 4.43 -3.57 8 -8 8 c -4.43 0 -8 -3.57 -8 -8 0 -4.43 3.57 -8 8 -8" style="fill:#aaa"/>
 <path d="m 2.808 5.222 c -0.392 0.392 -0.392 1.022 0 1.414 c 0.471 0.471 0.943 0.943 1.414 1.414 1.179 -1.179 2.357 -2.357 3.536 -3.536 -0.471 -0.471 -0.943 -0.943 -1.414 -1.414 c -0.392 -0.392 -1.022 -0.392 -1.414 0 z" style="fill:#aaa;opacity:1;fill-opacity:1;stroke:none"/>
 <rect width="4" height="3" x="10" y="1" rx="1" style="fill:#aaa;opacity:1;fill-opacity:1;stroke:none"/>
 <path d="m 21.19 5.222 c 0.392 0.392 0.392 1.022 0 1.414 -0.471 0.471 -0.943 0.943 -1.414 1.414 -1.179 -1.179 -2.357 -2.357 -3.536 -3.536 0.471 -0.471 0.943 -0.943 1.414 -1.414 0.392 -0.392 1.022 -0.392 1.414 0 z" style="fill:#aaa;opacity:1;fill-opacity:1;stroke:none"/>
 <path d="m 12 6 0 7 7 0 a 7 7 0 0 0 -7 -7" style="fill:#268bd2;opacity:1;fill-opacity:1;stroke:none"/>
</svg>
